X: 2
T: En Dro
M: 4/4
L: 1/8
R: barndance
K: Ador
|: E2 A>B c2 A>B | c2 B>A G4 | E2 A>B c>AA>B | c>cB>G A4 :|
|: c2 A>B c2 A>B | c2 d>c B4 | c2 A>B c>AA>B | c2 B>G A4 :|
